X:145
T:Liverpool Hornpipe, The
R:hornpipe
H:Also in G, #148
Z:id:hn-hornpipe-145
M:C|
L:1/8
K:D
DE | FDFA dfaf | gfec dcBA | GBGB FAFA | EDEF GFED |
FDFA dfaf | gfec dcBA | dfaf bgec | d2dc d2 :|
|: (3ABc | dfdf cece | BABc dcBA | GBGB FAFA | EDEF GFED |
FDFA dfaf | gfec dcBA | dfaf bgec | d2dc d2 :| 
P:variations
|: AG | (3FED FA dfaf | ~g3e dcBA | G2BG F2AF | EDEF GBAG |
FDFA dfaf | gfec dcBA | dfaf bgec | d2d2 d2 :|
|: (3ABc | d2fd c2ec | ~B3c dcBA | GABG FGAF | ~E3F GBAG |
FDFA dfaf | gfec dcBA | dfaf bgec | d2d2 d2 :| 

